X:6700
T:Waltz
L:1/4
M:3/4
O:France
R:Waltz
Z:Richard Robinson 
%%TUNEURL: http://www.leeds.ac.uk/music/Info/RRTuneBk/gettune/00001146.html
%%ID:00001146
K:G
|:\
B3 | ABd | D3 | DEF | G3 | EFG | B3 | A3 |
B3 | ABd | D3 | DEF | G>AB | A>GF |1 G3-|G3 :|2
G3-|GAB |: \
c2 B | A2 G | F3 | FGA | d2c | B2 A | G2 F | EFG |
c2B | A2 G | F3 | DEF | G>AB A>GF |1 G3-|GAB :|2 G3-|G3|]
